projects/more-shaders/santagirl/assets/images/icons/move.svg

<svg fill="none" viewBox="0 0 24 24" xmlns="http://www.w3.org/2000/svg"><path stroke="#000" stroke-linecap="round" stroke-linejoin="round" stroke-width="2" d="M12 3v6m0-6L9 6m3-3 3 3m-3 9v6m0 0 3-3m-3 3-3-3m-6-6h6m-6 0 3 3m-3-3 3-3m9 3h6m0 0-3-3m3 3-3 3"/></svg>

<?xml version="1.0" encoding="utf-8"?><!-- Uploaded to: SVG Repo, www.svgrepo.com, Generator: SVG Repo Mixer Tools -->
<svg width="800px" height="800px" viewBox="0 0 24 24" fill="none" xmlns="http://www.w3.org/2000/svg">
<path d="M12 3V9M12 3L9 6M12 3L15 6M12 15V21M12 21L15 18M12 21L9 18M3 12H9M3 12L6 15M3 12L6 9M15 12H21M21 12L18 9M21 12L18 15" stroke="#000000" stroke-width="2" stroke-linecap="round" stroke-linejoin="round"/>
</svg>
